icons/desktop/16/svg/packaging-16.svg

<svg width="16" height="16" viewBox="0 0 16 16" fill="none" xmlns="http://www.w3.org/2000/svg">
<path fill-rule="evenodd" clip-rule="evenodd" d="M8 1C9.35414 1 10.8879 1.06812 12.5615 1.26074C13.9499 1.42036 15 2.60179 15 3.99707V12.0059C15 13.3855 13.9763 14.5763 12.5859 14.7373C11.2006 14.8973 9.66484 15 8 15C6.64586 15 5.11208 14.9319 3.43848 14.7393C2.05011 14.5796 1 13.3982 1 12.0029V3.99414C1 2.61448 2.02371 1.42365 3.41406 1.2627C4.79938 1.10266 6.33516 1 8 1ZM11 6.65039C10.9997 7.60357 9.97489 8.20458 9.14258 7.74219L8 7.10742L6.85742 7.74219C6.02511 8.20458 5.00028 7.60357 5 6.65039V2.61719C4.51227 2.65517 4.04059 2.70041 3.58594 2.75293C2.97243 2.82411 2.5 3.3559 2.5 3.99414V12.0029C2.5 12.6376 2.97987 13.1765 3.60938 13.249C5.21967 13.4344 6.69621 13.5 8 13.5C9.60309 13.5 11.0814 13.401 12.4141 13.2471C13.0276 13.1759 13.5 12.6441 13.5 12.0059V3.99707C13.5 3.36244 13.0201 2.82349 12.3906 2.75098C11.9151 2.69624 11.4512 2.65243 11 2.61719V6.65039ZM8 2.5C7.48699 2.5 6.98677 2.51047 6.5 2.5293V6.22461L7.39258 5.72949L7.53711 5.66016C7.88331 5.52219 8.27689 5.54569 8.60742 5.72949L9.5 6.22461V2.53223C8.97806 2.51196 8.47751 2.5 8 2.5Z" fill="black"/>
</svg>

<!-- This Source Code Form is subject to the terms of the Mozilla Public
   - License, v. 2.0. If a copy of the MPL was not distributed with this
   - file, You can obtain one at http://mozilla.org/MPL/2.0/. -->
<svg xmlns="http://www.w3.org/2000/svg" width="16" height="16" fill="context-fill" fill-opacity="context-fill-opacity" viewBox="0 0 16 16">
    <path fill-rule="evenodd" d="M8 1c1.354 0 2.888.068 4.562.26A2.76 2.76 0 0 1 15 3.998v8.009c0 1.38-1.024 2.57-2.414 2.731a40 40 0 0 1-9.148.002A2.76 2.76 0 0 1 1 12.003V3.994c0-1.38 1.024-2.57 2.414-2.731A40 40 0 0 1 8 1m3 5.65a1.25 1.25 0 0 1-1.857 1.092L8 7.107l-1.143.635A1.25 1.25 0 0 1 5 6.65V2.617q-.732.057-1.414.136A1.24 1.24 0 0 0 2.5 3.994v8.009c0 .635.48 1.174 1.11 1.246a38.487 38.487 0 0 0 8.805-.002 1.24 1.24 0 0 0 1.085-1.241V3.997c0-.635-.48-1.174-1.11-1.246q-.713-.082-1.39-.134zM8 2.5q-.77 0-1.5.03v3.695l.893-.496.144-.069a1.25 1.25 0 0 1 1.07.07l.893.495V2.532A39 39 0 0 0 8 2.5" clip-rule="evenodd" />
</svg>
